X:1
T:Khvalitye imya Gospodie
T:Сергeй Рахманинов, 1915
T:Шестопсалмие Славословие малое
T:Всенощное бдение, Op. 37, No. 7
T:Public Domain
T:Public Domain
T:Public Domain
T:Public Domain
T:Public Domain
T:Public Domain
C:Sergei Rakhmanninov
Z:Public Domain
%%score [ ( 1 2 ) ( 3 4 ) ( 5 6 ) ( 7 8 ) ]
L:1/8
Q:1/4=90
M:none
K:Eb
V:1 treble nm="Сопрано" snm="С."
V:2 treble 
V:3 treble nm="Альтъ" snm="А."
V:4 treble 
V:5 treble-8 nm="Теноръ" snm="Т."
V:6 treble-8 
V:7 bass nm="Басъ" snm="Б."
V:8 bass 
V:1
"^Не скоро \n(двежение пoловинами)\nNot fast (beat half-notes)"!mf!"^певуче (melodically)""^Сла      –       ва  в вышних Бо – гу,              и    на     зем–ли  мир,            в че– ло– ве–цех бла – го – во –\nSla        –      va  v vuishnikh Bo–gu,               i      na     zem–li     mir,             v che–lo–ve–tsekh bla – go – vo –" z16 z4 | %1
 z4!>(! z4 z8!>)! |!mf! z16 | %3
"^–ле     –     ни –  е.                                                                                  Сла –  ва,\n– le      –     ni  –  ye.                                                                                 Sla  –  va," z16 | %4
"^Немного медленнее\nA little slower"[Q:1/4=80] x8!p! !>!e4!pp! e4 | z16 | %6
!p!"^Сла  –   ва,                                                              Сла       –     ва в вышних Бо – гу,               и    на  зем–ли  мир, \n Sla   –   va,                                                               Sla       –     va v vuishnikh Bo –gu,               i      na  zem–li     mir," !>!B4!pp! B4 x8!pp! x8 | %7
 z16[Q:1/4=70] z4 | z16[Q:1/4=60] | %9
 x8 x4!ppp!"^Сла       –       –       –       –       –         ва,                                                      Сла       – \n Sla        –       –       –       –       –         va,                                                       Sla       –" (!>![ce]4- | %10
"^В темпе (In tempo)"[Q:1/4=90] [ce][Bd][Ac][Bd]) ([ce]4- [ce][Bd][Ac][Bd]) (!tenuto![ce]4- | %11
"^–  ва,                      Сла       –          ва,                                                                                Гос – по  – ди,          уст –\n–  va,                       Sla        –          va,                                                                                Gos – po  –  di,           ust –" [ce][Bd][Ac])[Bd] !tenuto![ce][Bd][Ac][Bd]!<(! !tenuto![ce][Bd][Ac][Bd] (!tenuto![ce][Bd][Ac][Bd]!<)! | %12
!f!!>(! [ce]8- !fermata![ce]4)"^длинная пауза \n(long pause)""^" z4!>)! | %13
"^Медленно, очень мягко, \nС большим чуством\nSlowly, very gently, with great feeling"[Q:1/4=50]!p!!>(! !tenuto!G4 F4!pp! G4 z2!<(! A2!>)!!<)! | %14
"^–  не                 мо–и от –  вер–зе–ши,               и   у – ста  мо–я           воз-ве-стят хва – лу             Тво  –  ю.\n–  ne                 mo–i   ot  –  ver-zye-shi,                i    u  – sta  mo–ya        voz-ve-styat  khva–lu              Tvo  – yu."!>(! !tenuto!B8- B2!pp! A2 G2 FG!>)! | %15
!>(! !tenuto!A6 G2 G8!>)! | z4!pp! G2 A2 | B6 A2!<(! (B4 =B4)!<)! | %18
!mf!!>(! !tenuto!c6 B2!p! c4!>(! G4!>)!!>)! | %19
!pp!"^задерживая\nslowing"[Q:1/4=30] B8-!>(! B4 A4!>)! |!ppp! !fermata!G8 |] %21
V:2
 (E2 F2 G2) G2 GF E2 !tenuto!F4 (FG A2) | G2 G2 GF E2 !tenuto!F8 | %2
 G2 G2 G2 G2!>(! !tenuto!G4 G!<(!F E2 | !tenuto!F4 F2!p! F2- F2 z2 z4!>)! | z8 !>![Ac]4 [Ac]4 | %5
 x16 | !>![EG]4 [EG]4 z16 | %7
 (E2 F2 G2) G2"^Всё медленнее, всё слабее\nEver slower, ever quieter" GF E2 !tenuto!F4 (FG A2) | %8
 G2 G2 GF E2 F8 | z8 z4 A4- | ABcB A4- ABcB A4- | ABcB ABcB ABcB (ABcB!<)! | A8- A4) x4 | x16 | %14
 x16 | x16 | x8 | x16 | x16 | x16 | x8 |] %21
V:3
!mf!"^певуче (melodically)""^Сла      –       ва  в вышних Бо – гу,              и    на     зем–ли  мир,            в че– ло– ве–цех бла – го – во –\nSla        –      va  v vuishnikh Bo–gu,               i      na     zem–li     mir,             v che–lo–ve–tsekh bla – go – vo –" (E2 F2 G2) G2 GF E2 !tenuto!F4 (FG A2) | %1
 G2 G2!>(! GF E2 !tenuto!F8!>)! |!mf! G2 G2 G2 G2!>(! !tenuto!G4 G!<(!F E2!>)!!<)! | %3
"^–ле     –     ни –  е.                       Сла       –       –    ва в вышних Бо   –  гу,                  и      на     зем– ли  мир,\n– le      –     ni  –  ye.                      Sla        –       –    v v vuishnikh Bo   –  gu,                  i        na     zem– li     mir,  \n"!>(! !tenuto!F4 F2!p! F2- F2 z2!p!!<(! (E2 F2!>)!!<)! | %4
!p! G2) G2 GF E2 !tenuto!F4 (FG A2) | G2 G2 GF E2 !tenuto!F8 | %6
"^в че–ло-ве-цех бла–го–во–лен–и – е.     Сла       –     ва в вышних Бо – гу,                и   на   зем-ли мир,\nv che-lo-ve-tsekh bla-go-vo– len– i – ye.    Sla        –    va v vuishnikh Bo – gu,                 i   na   zem–li   mir," G2 G2 G2 G2 !tenuto!G4 GF E2 !tenuto!F4!>(! F2 F2!>)! | %7
!pp! (E2 F2 G2) G2 GF E2 !tenuto!F4 (FG A2) | G2 G2 GF E2 F8 | %9
"^в че  –  ло  –  ве  –  цех     бла    –    го   –    во   –    ле       –       –       –       –       –       ни       –       –       – \nv che–  lo   –  ve   –tsekh   bla     –    go   –    vo   –    le        –       –       –        –       –        ni        –       –       –" G2 G2 G2 G2 G4 GF E2 | %10
 !tenuto!F8 !>![B,F]8 | %11
"^–  е.                                                    Сла       –       –       –       –       –      ва,         \n–  ye.                                                  Sla        –       –       –       –       –      va," !>![B,F]8!<(! !>![B,F]8!<)! | %12
!<(! (F4!f! A4-)!>(! !fermata!A4 z4!<)!!>)! |!p!!>(! !tenuto!E4 D4!pp! E4 z2!<(! E2!>)!!<)! | %14
!>(! !tenuto!E8- E2!pp! E2 E2 E2!>)! |!>(! !tenuto!E6 E2 E8!>)! | z4!pp! E2 E2 | %17
 E6 E2!<(! (E4 D4)!<)! |!mf!!>(! !tenuto!E6 D2!p! E4!>(! [DG]4!>)!!>)! | %19
!pp! [_DB]8-!>(! [DB]4 [CA]4!>)! |!ppp! !fermata![EG]8 |] %21
V:4
 x20 | x16 | x16 | x16 | x16 | x16 | x24 | x20 | x16 | x16 | x16 | x16 | !>!B,8- B,4 x4 | x16 | %14
 x16 | x16 | x8 | x16 | x16 | x16 | x8 |] %21
V:5
!p!"^Сла       –       –       –       –     ва                         в выш       –       –     них                   Бо       –       –       –       –  \nSla         –       –       –       –     va                         v vuish      –       –     nikh                  Bo       –       –       –       –" ([ce]4 [Gd]4 [Ac]4) (!tenuto![Bd]4 [ce]4) | %1
 ([Gd]4!>(! [Ac]4) ([Bd]4 [ce]4)!>)! | ([Gd]4 [Ac]4 [Bd]4 [ce]4) | %3
!pp!"^–  гу,                                                                                                                                               Сла       –       –       –       –    \n–  gu,                                                                                                                                                Sla        –       –       –       –" (d4 c4 B4 A4 | %4
 G8) z8 |!pp! (!>!g8 f8) | %6
"^– ва,                      Сла       –         ва,                      и                                              на                           зем       –       –      ли \n– va,                       Sla        –         va,                       i                                               na                           zem      –       –        li" e2 z2 z4!pp! !>![GBd]8 (c4 d4) | %7
!pp! (e2 f2 g2) g2 gf e2 !tenuto!f4 fg a2 | g2 g2 gf e2 f8 | %9
"^мир.               Сла       –       –       –       –       –       –       ва,                            Сла       –       –       –       –       –     ва,\nmir.                  Sla        –       –       –       –       –       –       va,                             Sla        –       –       –       –       –     va," z4!ppp! !>![ceg]12 | %10
 [ef]4 !tenuto![ef]8 [ef]4- | %11
 [ef]4"^Сла       –       –       –       –           ва,                                                                               Гос – по  – ди,          уст –\n Sla        –       –       –       –           va,                                                                               Gos – po  –  di,           ust –"!<(! !tenuto![ef]8 [ef]4-!<)! | %12
!f!!<(! [ef]8-!>(! !fermata![ef]4 z4!<)!!>)! |!p!!>(! !tenuto!B4 B4!pp! B4 z2!<(! c2!>)!!<)! | %14
"^–  не                 мо–и от –  вер–зе–ши,               и   у – ста  мо–я           воз-ве-стят хва – лу             Тво  –  ю.\n–  ne                 mo–i   ot  –  ver-zye-shi,                i    u  – sta  mo–ya        voz-ve-styat  khva–lu              Tvo  – yu."!>(! !tenuto!_d8- d2!pp! c2 B2 AB!>)! | %15
!>(! !tenuto!c6 B2 B8!>)! | z4!pp! B2 B2 | B6 B2!<(! (B4 A4)!<)! | %18
!mf! !tenuto!G6!>(! A2!p! G4!>(! d4!>)!!>)! |!pp! _d8-!>(! d4 c4!>)! |!ppp! !fermata!B8 |] %21
V:6
 x20 | x16 | x16 | d2 z2 z4 z8 | x16 | ([ce]8- [ce]4 B4) | e2 x2 x4 z8 (A4 B4) | %7
 (c4 d4 e4) (c4 d4) | (B4 c4) A8 | G4 x4 x8 | c4 !>!c8 !>!c4- | c4 !>!c8 !>!c4- | c8- c4 x4 | x16 | %14
 x16 | x16 | x8 | x16 | x16 | x16 | x8 |] %21
V:7
 z16 z4 | z16 | z16 | %3
"^Сла       –       –       –       –       –       –          ва,\n Sla        –       –       –       –       –        –         va," (G,4 A,4 D,4 C,4) | %4
!pp!"^Сла       –       –       –       –       –       –       –       –       –       –       –   \n Sla        –       –       –       –       –       –       –       –       –       –       –" B,,8 z8 | %5
 z16 | %6
"^– ва,                                                                                            и                               на                          зем       –       –       ли \n– va,                                                                                             i                                na                          zem      –       –         li" z16 z8 | %7
 z4!p! G,8 F,8 | (D,4 C,4) (C,4 B,,4) | %9
"^мир.                                                                                        Сла       –       –       –       –       –     ва,\nmir.                                                                                           Sla        –       –       –       –       –     va," B,,4 z4 z8 | %10
 (!tenuto![B,,F,]2 [C,A,]2 [B,,F,]2 [C,A,]2) (!tenuto![B,,F,]2 [C,A,]2 [B,,F,]2 [C,A,]2) | %11
"^Сла       –       –       –       –           ва,\n Sla        –       –       –       –           va," (!tenuto![B,,F,]2 [C,A,]2 [B,,F,]2 [C,A,]2)!<(! (!tenuto![B,,F,]2 [C,A,]2 [B,,F,]2 [C,A,]2!<)! | %12
!<(! [B,,F,]4!f! [C,A,]4-!>(! !fermata![C,A,]4) z4!<)!!>)! | %13
!p!!>(! !tenuto!E,4 B,,4!pp! E,4 z2!<(! [A,,E,]2!>)!!<)! | %14
!>(! !tenuto![G,,E,]8- [G,,E,]2!pp! [A,,E,]2 [B,,E,]2 E,2!>)! |!>(! !tenuto!E,6 E,2 E,8!>)! | %16
 z4!pp! E,2 F,2 | G,6 A,2!<(! (G,4 F,4)!<)! |!mf!!>(! C,6 F,2!p! C,4!>(! E,4!>)!!>)! | %19
!pp! [G,,E,]8-!>(! [G,,E,]4 (E,2 D,2)!>)! |!ppp! !fermata![E,,E,]8 |] %21
V:8
 x20 | x16 | x16 | z8 z8 | E,,8- E,,8- | E,,8- E,,8 | !tenuto!E,,8- E,,8 z8 | %7
 z4 (B,,4 C,4) (A,,4 B,,4) | (G,,4 A,,4) (F,,4 B,,4) | E,,8- E,,8 | E,,8 E,,8 | E,,8 E,,8- | %12
 E,,8- E,,4 x4 | x16 | x4 x4 x4 x2 C,B,, | E,6 E,2 x8 | x8 | x16 | x16 | x8 x4 A,,4 | x8 |] %21

